src/assets/icons/ico_pmaintenance.svg

<?xml version="1.0" encoding="utf-8"?>
<!-- Generator: Adobe Illustrator 26.0.1, SVG Export Plug-In . SVG Version: 6.00 Build 0)  -->
<svg version="1.1" id="Layer_1" xmlns="http://www.w3.org/2000/svg" xmlns:xlink="http://www.w3.org/1999/xlink" x="0px" y="0px"
	 viewBox="0 0 64 64" style="enable-background:new 0 0 64 64;" xml:space="preserve">
<style type="text/css">
	.st0{fill:#43BBC4;}
</style>
<path class="st0" d="M43.6893,45.1346c-0.1318-0.205-0.2773-0.3807-0.454-0.574l-4.8154-4.8018
	c-0.1953-0.1934-0.5117-0.1943-0.707,0.001l-0.1943,0.1934c-0.1348,0.1367-0.3604,0.1436-0.5127-0.0068
	c-0.0615-0.0605-0.0967-0.1426-0.0977-0.2314c-0.001-0.0947,0.0361-0.1855,0.1064-0.2559l0.2061-0.207
	c0.1943-0.1953,0.1943-0.5117-0.002-0.707c-0.1953-0.1934-0.5117-0.1953-0.707,0.002l-0.2051,0.2061
	c-0.2607,0.2607-0.4023,0.6064-0.3984,0.9727c0.0039,0.3604,0.1475,0.6943,0.3975,0.9346c0.459,0.46,1.2324,0.5195,1.748,0.1465
	l4.459,4.4453c0.1216,0.1343,0.2336,0.2668,0.3338,0.4224c0.0001,0.0002,0.0001,0.0003,0.0002,0.0005
	c0.4883,0.7637,0.4883,1.7598,0.001,2.5332c-0.3379,0.5273-0.8613,0.8916-1.4736,1.0244c-0.6172,0.1328-1.2432,0.0186-1.7705-0.3223
	c-0.0039-0.0025-0.0085-0.0025-0.0125-0.0049s-0.006-0.0065-0.01-0.0088c-0.125-0.0713-0.2471-0.168-0.373-0.2949l-4.4668-4.4668
	c0.3828-0.5303,0.3359-1.2773-0.1416-1.7549c-0.5303-0.5303-1.3906-0.5293-1.9092-0.0107l-0.2061,0.1934
	c-0.2021,0.1885-0.2119,0.5049-0.0225,0.7061c0.1875,0.2041,0.5068,0.2119,0.7061,0.0225l0.2178-0.2041
	c0.1416-0.1396,0.3672-0.1377,0.5068,0c0.1396,0.1396,0.1396,0.3672,0.0127,0.4951l-0.207,0.1934
	c-0.0996,0.0928-0.1572,0.2207-0.1592,0.3564s0.0508,0.2666,0.1465,0.3623L38.5,49.3076c0.1807,0.1816,0.363,0.3238,0.5556,0.4376
	c0.002,0.0013,0.0029,0.0035,0.0049,0.0048c0.0038,0.0025,0.0081,0.0041,0.0119,0.0065c0.0036,0.0021,0.007,0.0051,0.0106,0.0071
	c0.0015,0.0009,0.0032,0.0004,0.0046,0.0012c0.5406,0.3425,1.154,0.5222,1.7815,0.5222c0.2383,0,0.4775-0.0264,0.7168-0.0771
	c0.874-0.1904,1.6211-0.709,2.1055-1.4658c0.6943-1.1025,0.6943-2.5186-0.001-3.6084
	C43.6901,45.1353,43.6896,45.1351,43.6893,45.1346z"/>
<path class="st0" d="M21.5195,31.0869c0.0674,0.1162,0.1797,0.2012,0.3096,0.2344l1.4707,0.375l4.2871,4.2773
	c0.0977,0.0967,0.2256,0.1455,0.3535,0.1455s0.2568-0.0488,0.3545-0.1465c0.1943-0.1963,0.1943-0.5127-0.001-0.708l-4.3848-4.373
	c-0.0635-0.0625-0.1426-0.1074-0.2295-0.1299l-1.3984-0.3574l-1.3291-2.3027l1.083-1.0752l2.3018,1.3184l0.3477,1.4072
	c0.0215,0.0879,0.0674,0.1689,0.1318,0.2334l4.3848,4.3848c0.1953,0.1953,0.5117,0.1953,0.707,0s0.1953-0.5117,0-0.707
	l-4.2861-4.2861l-0.3652-1.4795c-0.0322-0.1328-0.1182-0.2461-0.2373-0.3135l-2.8184-1.6143
	c-0.1943-0.1123-0.4404-0.0801-0.6006,0.0791l-1.626,1.6143c-0.1611,0.1592-0.1943,0.4082-0.0811,0.6045L21.5195,31.0869z"/>
<path class="st0" d="M43.7139,29.2832c-0.1738-0.0459-0.3594,0.002-0.4863,0.1289l-2.4678,2.4668l-1.8887-0.6299l-0.6289-1.8887
	l2.4668-2.4668c0.127-0.127,0.1758-0.3125,0.1289-0.4854c-0.0479-0.1738-0.1846-0.3086-0.3584-0.3525
	c-1.2754-0.3262-2.5957-0.1348-3.7246,0.5352c-1.1289,0.6709-1.9297,1.7402-2.2549,3.0127
	c-0.1787,0.7012-0.2002,1.4385-0.0635,2.1484l-8.7549,8.7549c-2.5605-0.4902-5.0957,1.0938-5.7451,3.6494
	c-0.6729,2.6514,0.9365,5.3555,3.5869,6.0283c0.4072,0.1035,0.8164,0.1533,1.2188,0.1533c2.2148,0,4.2393-1.498,4.8086-3.7402
	c0.1787-0.7051,0.2002-1.4453,0.0635-2.1592l8.7549-8.7549c2.5342,0.4863,5.0518-1.083,5.6963-3.6172
	c0.2021-0.793,0.2021-1.6309,0-2.4238C44.0215,29.4678,43.8867,29.3311,43.7139,29.2832z M43.0967,31.8203
	c-0.5332,2.0938-2.6689,3.3613-4.7637,2.8311c-0.1719-0.0449-0.3525,0.0068-0.4766,0.1309l-9.1436,9.1436
	c-0.125,0.125-0.1748,0.3057-0.1309,0.4766c0.1611,0.6377,0.1611,1.3125,0,1.9492c-0.5381,2.1162-2.6963,3.3994-4.8125,2.8643
	c-2.1162-0.5381-3.4004-2.6973-2.8643-4.8135c0.4551-1.79,2.0703-2.9854,3.8389-2.9854c0.3213,0,0.6484,0.04,0.9736,0.1221
	c0.1729,0.0449,0.3525-0.0059,0.4766-0.1309l9.1436-9.1436c0.125-0.125,0.1748-0.3057,0.1309-0.4766
	c-0.1611-0.6348-0.1611-1.3037,0-1.9365c0.4541-1.7783,2.0352-2.9648,3.8174-2.9492l-1.9697,1.9697
	c-0.1338,0.1338-0.1807,0.332-0.1211,0.5117l0.8057,2.4189c0.0498,0.1494,0.167,0.2666,0.3164,0.3164l2.4189,0.8066
	c0.1807,0.0586,0.3779,0.0137,0.5117-0.1211l1.9688-1.9678C43.2188,31.168,43.1777,31.498,43.0967,31.8203z"/>
<path class="st0" d="M26.4072,43.0791c-0.0898-0.1514-0.2529-0.2432-0.4287-0.2432h-2.4189c-0.1758,0-0.3389,0.0918-0.4287,0.2432
	l-1.21,2.0166c-0.0947,0.1582-0.0947,0.3555,0,0.5146l1.21,2.0156c0.0908,0.1504,0.2529,0.2422,0.4287,0.2422h2.4189
	c0.1758,0,0.3389-0.0918,0.4287-0.2432l1.209-2.0156c0.0947-0.1582,0.0947-0.3555,0-0.5137L26.4072,43.0791z M25.6953,46.8682
	h-1.8525l-0.9102-1.5156l0.9102-1.5166h1.8525l0.9092,1.5166L25.6953,46.8682z"/>
<path class="st0" d="M46.7393,24.4609v-6.9102c0-0.2764-0.2236-0.5-0.5-0.5h-6.9158l-5.2912-5.2988
	c-1.1221-1.1191-2.9443-1.1182-4.0625,0.001L9.5918,32.1289c-0.8066,0.8086-0.7188,1.4316-0.5947,1.7305
	c0.124,0.2998,0.5029,0.8018,1.6445,0.8018h4.2441v17.668c0,0.7266,0.5918,1.3184,1.3184,1.3184h20.542h2.4941h8.5547
	c0.7266,0,1.3174-0.5908,1.3174-1.3174V34.6611h4.2471c1.1416,0,1.5205-0.502,1.6445-0.8018
	c0.124-0.2988,0.2109-0.9219-0.5967-1.7295L46.7393,24.4609z M54.0791,33.4766c-0.0156,0.0391-0.1855,0.1846-0.7197,0.1846h-4.7471
	c-0.2764,0-0.5,0.2236-0.5,0.5v18.1689c0,0.1719-0.1455,0.3174-0.3174,0.3174h-8.5547h-2.4941h-20.542
	c-0.1729,0-0.3184-0.1455-0.3184-0.3184v-18.168c0-0.2764-0.2236-0.5-0.5-0.5h-4.7441c-0.4873,0-0.6963-0.124-0.7207-0.1846
	c-0.0254-0.0605,0.0342-0.2959,0.3779-0.6406L30.6768,12.46c0.7305-0.7285,1.9189-0.7285,2.6494,0l5.4359,5.4437
	c0.0463,0.0464,0.1017,0.0832,0.1632,0.1086c0.0611,0.0253,0.1259,0.0385,0.1909,0.0385h6.623v6.6172
	c0,0.0651,0.0132,0.1298,0.0385,0.1909c0.0255,0.0615,0.0623,0.1169,0.1086,0.1632l7.8138,7.8148
	C54.0781,33.2158,54.0957,33.4385,54.0791,33.4766z"/>
</svg>

<?xml version="1.0" encoding="UTF-8" standalone="no"?>
<!DOCTYPE svg PUBLIC "-//W3C//DTD SVG 1.1//EN" "http://www.w3.org/Graphics/SVG/1.1/DTD/svg11.dtd">
<svg width="100%" height="100%" viewBox="0 0 64 65" version="1.1" xmlns="http://www.w3.org/2000/svg" xmlns:xlink="http://www.w3.org/1999/xlink" xml:space="preserve" xmlns:serif="http://www.serif.com/" style="fill-rule:evenodd;clip-rule:evenodd;stroke-linejoin:round;stroke-miterlimit:2;">
    <g transform="matrix(1,0,0,1,0,-79)">
        <g transform="matrix(0.0625,0,0,0.0833333,0,79.8764)">
            <rect id="ico_pmaintenance" x="0" y="0" width="1024" height="768" style="fill:none;"/>
            <g id="ico_pmaintenance1" serif:id="ico_pmaintenance">
                <g id="ico_pmaintenance.svg" transform="matrix(16,0,0,12,512,384)">
                    <g transform="matrix(1,0,0,1,-32,-32)">
                        <g>
                            <path d="M43.689,45.135C43.558,44.93 43.412,44.754 43.235,44.561L38.42,39.759C38.225,39.565 37.908,39.565 37.713,39.76L37.519,39.953C37.384,40.09 37.158,40.097 37.006,39.946C36.944,39.886 36.909,39.804 36.908,39.715C36.907,39.62 36.944,39.53 37.015,39.459L37.221,39.252C37.415,39.057 37.415,38.74 37.219,38.545C37.023,38.352 36.707,38.35 36.512,38.547L36.307,38.753C36.046,39.014 35.904,39.36 35.908,39.726C35.912,40.086 36.056,40.42 36.306,40.661C36.765,41.121 37.538,41.18 38.054,40.807L42.513,45.252C42.634,45.387 42.746,45.519 42.846,45.675C42.847,45.675 42.847,45.675 42.847,45.675C43.335,46.439 43.335,47.435 42.848,48.208C42.51,48.736 41.986,49.1 41.374,49.233C40.757,49.366 40.131,49.251 39.604,48.911C39.6,48.908 39.595,48.908 39.591,48.906C39.587,48.903 39.585,48.899 39.581,48.897C39.456,48.826 39.334,48.729 39.208,48.602L34.741,44.135C35.124,43.605 35.077,42.858 34.6,42.38C34.069,41.85 33.209,41.851 32.69,42.37L32.484,42.563C32.282,42.751 32.272,43.068 32.462,43.269C32.649,43.473 32.969,43.481 33.168,43.292L33.386,43.087C33.527,42.948 33.753,42.95 33.893,43.087C34.032,43.227 34.032,43.455 33.905,43.583L33.698,43.776C33.599,43.869 33.541,43.997 33.539,44.132C33.537,44.268 33.59,44.399 33.686,44.495L38.5,49.308C38.681,49.489 38.863,49.631 39.056,49.745C39.058,49.747 39.058,49.749 39.061,49.75C39.064,49.753 39.069,49.754 39.072,49.757C39.076,49.759 39.079,49.762 39.083,49.764C39.084,49.765 39.086,49.764 39.088,49.765C39.628,50.107 40.242,50.287 40.869,50.287C41.107,50.287 41.347,50.261 41.586,50.21C42.46,50.02 43.207,49.501 43.691,48.744C44.386,47.642 44.386,46.226 43.69,45.136C43.69,45.135 43.69,45.135 43.689,45.135Z" style="fill:rgb(26,91,87);fill-rule:nonzero;"/>
                            <path d="M21.52,31.087C21.587,31.203 21.699,31.288 21.829,31.321L23.3,31.696L27.587,35.974C27.685,36.07 27.813,36.119 27.94,36.119C28.068,36.119 28.197,36.07 28.295,35.973C28.489,35.776 28.489,35.46 28.294,35.265L23.909,30.892C23.846,30.829 23.767,30.784 23.68,30.762L22.281,30.404L20.952,28.102L22.035,27.026L24.337,28.345L24.685,29.752C24.706,29.84 24.752,29.921 24.816,29.985L29.201,34.37C29.397,34.566 29.713,34.566 29.908,34.37C30.104,34.175 30.104,33.859 29.908,33.663L25.622,29.377L25.257,27.898C25.225,27.765 25.139,27.652 25.02,27.584L22.201,25.97C22.007,25.857 21.761,25.89 21.601,26.049L19.975,27.663C19.813,27.822 19.78,28.071 19.893,28.268L21.52,31.087Z" style="fill:rgb(26,91,87);fill-rule:nonzero;"/>
                            <path d="M43.714,29.283C43.54,29.237 43.355,29.285 43.228,29.412L40.76,31.879L38.871,31.249L38.242,29.36L40.709,26.894C40.836,26.767 40.885,26.581 40.838,26.408C40.79,26.234 40.653,26.1 40.48,26.056C39.204,25.729 37.884,25.921 36.755,26.591C35.626,27.262 34.825,28.331 34.5,29.604C34.321,30.305 34.3,31.042 34.437,31.752L25.682,40.507C23.121,40.017 20.586,41.601 19.937,44.156C19.264,46.808 20.873,49.512 23.523,50.185C23.931,50.288 24.34,50.338 24.742,50.338C26.957,50.338 28.982,48.84 29.551,46.598C29.73,45.893 29.751,45.152 29.614,44.438L38.369,35.684C40.903,36.17 43.421,34.601 44.066,32.066C44.268,31.273 44.268,30.435 44.066,29.643C44.022,29.468 43.887,29.331 43.714,29.283ZM43.097,31.82C42.564,33.914 40.428,35.182 38.333,34.651C38.161,34.607 37.981,34.658 37.856,34.782L28.713,43.926C28.588,44.051 28.538,44.232 28.582,44.402C28.743,45.04 28.743,45.715 28.582,46.352C28.044,48.468 25.886,49.751 23.769,49.216C21.653,48.678 20.369,46.519 20.905,44.402C21.36,42.612 22.975,41.417 24.744,41.417C25.065,41.417 25.392,41.457 25.718,41.539C25.891,41.584 26.07,41.533 26.194,41.408L35.338,32.265C35.463,32.14 35.513,31.959 35.469,31.788C35.308,31.153 35.308,30.484 35.469,29.852C35.923,28.073 37.504,26.887 39.286,26.902L37.316,28.872C37.183,29.006 37.136,29.204 37.195,29.384L38.001,31.803C38.051,31.952 38.168,32.069 38.317,32.119L40.736,32.926C40.917,32.984 41.114,32.939 41.248,32.805L43.217,30.837C43.219,31.168 43.178,31.498 43.097,31.82Z" style="fill:rgb(26,91,87);fill-rule:nonzero;"/>
                            <path d="M26.407,43.079C26.317,42.928 26.154,42.836 25.979,42.836L23.56,42.836C23.384,42.836 23.221,42.928 23.131,43.079L21.921,45.096C21.826,45.254 21.826,45.451 21.921,45.61L23.131,47.626C23.222,47.776 23.384,47.868 23.56,47.868L25.979,47.868C26.154,47.868 26.317,47.776 26.407,47.625L27.616,45.609C27.711,45.451 27.711,45.254 27.616,45.096L26.407,43.079ZM25.695,46.868L23.843,46.868L22.933,45.353L23.843,43.836L25.695,43.836L26.604,45.353L25.695,46.868Z" style="fill:rgb(26,91,87);fill-rule:nonzero;"/>
                            <path d="M46.739,24.461L46.739,17.551C46.739,17.274 46.516,17.051 46.239,17.051L39.324,17.051L34.032,11.752C32.91,10.633 31.088,10.634 29.97,11.753L9.592,32.129C8.785,32.938 8.873,33.561 8.997,33.859C9.121,34.159 9.5,34.661 10.642,34.661L14.886,34.661L14.886,52.329C14.886,53.056 15.477,53.648 16.204,53.648L47.795,53.648C48.521,53.648 49.112,53.057 49.112,52.33L49.112,34.661L53.359,34.661C54.501,34.661 54.88,34.159 55.004,33.859C55.128,33.561 55.215,32.937 54.407,32.13L46.739,24.461ZM54.079,33.477C54.064,33.516 53.894,33.661 53.359,33.661L48.612,33.661C48.336,33.661 48.112,33.885 48.112,34.161L48.112,52.33C48.112,52.502 47.967,52.648 47.795,52.648L16.204,52.648C16.031,52.648 15.886,52.502 15.886,52.329L15.886,34.161C15.886,33.885 15.662,33.661 15.386,33.661L10.642,33.661C10.154,33.661 9.945,33.537 9.921,33.477C9.895,33.416 9.955,33.181 10.299,32.836L30.677,12.46C31.407,11.732 32.596,11.732 33.326,12.46L38.762,17.904C38.808,17.95 38.864,17.987 38.925,18.012C38.986,18.038 39.051,18.051 39.116,18.051L45.739,18.051L45.739,24.668C45.739,24.733 45.752,24.798 45.778,24.859C45.803,24.92 45.84,24.976 45.886,25.022L53.7,32.837C54.078,33.216 54.096,33.439 54.079,33.477Z" style="fill:rgb(26,91,87);fill-rule:nonzero;"/>
                        </g>
                    </g>
                </g>
            </g>
        </g>
    </g>
</svg>
